.local/share/icons/Gruvbox-Plus-Dark/mimetypes/scalable/application-word.svg

<svg width="256" height="256" viewBox="0 0 256 256" fill="none" xmlns="http://www.w3.org/2000/svg">
<g opacity="0.4" filter="url(#filter0_f)">
<path d="M55.0839 15.5636H155.608L216.009 75.7129L216.011 224.609C216.011 233.52 208.749 240.737 199.838 240.737H55.0838C46.1734 240.737 39 233.564 39 224.654V31.6474C39 22.737 46.1734 15.5636 55.0838 15.5636H55.0839Z" fill="#282828"/>
</g>
<path d="M55.0839 15H155.608L216.009 75.1493L216.011 224.045C216.011 232.956 208.749 240.174 199.838 240.174H55.0838C46.1734 240.174 39 233 39 224.09V31.0838C39 22.1734 46.1734 15 55.0838 15H55.0839Z" fill="#ebdbb2"/>
<path fill-rule="evenodd" clip-rule="evenodd" d="M155.608 20.3191H55.0839C49.1112 20.3191 44.3191 25.1111 44.3191 31.0838V224.09C44.3191 230.063 49.1111 234.855 55.0838 234.855H199.838C205.83 234.855 210.692 229.999 210.692 224.046V75.1493L155.608 20.3191ZM155.608 15H55.0839C46.1735 15 39 22.1734 39 31.0838V224.09C39 233 46.1734 240.174 55.0838 240.174H199.838C208.749 240.174 216.011 232.956 216.011 224.045L216.009 75.1493L155.608 15Z" fill="url(#paint0_linear)"/>
<path d="M133.037 68C111.364 71.7221 89.6792 76.6593 68.0064 80.3129C68.0064 112.104 67.992 143.91 68.0064 175.715C89.5659 179.355 111.139 184.21 132.656 188H139.111V68H133.036H133.037ZM124.654 106.869L114.667 147.286L106.472 146.662C104.592 137.637 102.402 128.668 100.72 119.602C99.0645 128.409 96.9146 137.134 95.0202 145.886C92.3058 145.749 89.5792 145.586 86.8504 145.409C84.5038 133.412 81.7461 121.497 79.555 109.473C81.9727 109.365 84.4049 109.269 86.8215 109.188C88.277 117.872 89.9325 126.515 91.2036 135.213C93.1969 126.296 95.2346 117.38 97.2146 108.465C99.9 108.315 102.586 108.205 105.271 108.069C107.152 117.272 109.073 126.458 111.109 135.62C112.706 126.159 114.475 116.726 116.185 107.279C119.013 107.182 121.839 107.032 124.653 106.869H124.654ZM143.557 85.1429H188V170.857H143.557V162.286H179.111V158H143.557V149.429H179.111V145.143H143.557V136.571H179.111V132.286H143.557V123.714H179.111V119.429H143.557V110.872H179.111V106.571H143.557V98H179.111V93.7143H143.557V85.1429Z" fill="url(#paint1_linear)"/>
<path opacity="0.25" d="M155.608 17V61.2306C155.608 70.141 162.867 77.1605 171.777 77.1605L216.009 77.1493V75.1493L155.608 17Z" fill="#282828"/>
<path d="M155.608 15V59.2306C155.608 68.141 162.867 75.1605 171.777 75.1605L216.009 75.1493L155.608 15Z" fill="url(#paint2_linear)"/>
<defs>
<filter id="filter0_f" x="23.8778" y="0.441412" width="207.255" height="255.418" filterUnits="userSpaceOnUse" color-interpolation-filters="sRGB">
<feFlood flood-opacity="0" result="BackgroundImageFix"/>
<feBlend mode="normal" in="SourceGraphic" in2="BackgroundImageFix" result="shape"/>
<feGaussianBlur stdDeviation="7.5611" result="effect1_foregroundBlur"/>
</filter>
<linearGradient id="paint0_linear" x1="39" y1="15" x2="39" y2="240.174" gradientUnits="userSpaceOnUse">
<stop offset="1e-07" stop-color="#076678"/>
<stop offset="1" stop-color="#458588"/>
</linearGradient>
<linearGradient id="paint1_linear" x1="68" y1="68" x2="68" y2="188" gradientUnits="userSpaceOnUse">
<stop offset="1e-07" stop-color="#076678"/>
<stop offset="1" stop-color="#458588"/>
</linearGradient>
<linearGradient id="paint2_linear" x1="155.608" y1="15" x2="155.608" y2="75.1605" gradientUnits="userSpaceOnUse">
<stop offset="1e-07" stop-color="#076678"/>
<stop offset="1" stop-color="#458588"/>
</linearGradient>
</defs>
</svg>

<svg width="256" height="256" fill="none" version="1.1" viewBox="0 0 256 256" xmlns="http://www.w3.org/2000/svg">
  <path d="m55.08 15h100.5l60.4 60.15 2e-3 148.9c0 8.911-7.262 16.13-16.17 16.13h-144.8c-8.91 0-16.08-7.174-16.08-16.08v-193c0-8.91 7.173-16.08 16.08-16.08h1e-4z" fill="#ebdbb2"/>
  <path d="m155.6 20.32h-100.5c-5.973 0-10.76 4.792-10.76 10.76v193c0 5.973 4.792 10.76 10.76 10.76h144.8c5.992 0 10.85-4.856 10.85-10.81v-148.9l-55.08-54.83zm0-5.319h-100.5c-8.91 0-16.08 7.173-16.08 16.08v193c0 8.91 7.173 16.08 16.08 16.08h144.8c8.911 0 16.17-7.218 16.17-16.13l-2e-3 -148.9-60.4-60.15z" clip-rule="evenodd" fill="url(#paint0_linear)" fill-rule="evenodd"/>
  <path d="m133 68c-21.67 3.722-43.36 8.659-65.03 12.31 0 31.79-0.0144 63.6 0 95.4 21.56 3.64 43.13 8.495 64.65 12.28h6.455v-120h-6.075 1e-3zm-8.383 38.87-9.987 40.42-8.195-0.624c-1.88-9.025-4.07-17.99-5.752-27.06-1.656 8.807-3.805 17.53-5.7 26.28-2.714-0.137-5.441-0.3-8.17-0.477-2.347-12-5.104-23.91-7.295-35.94 2.418-0.108 4.85-0.204 7.266-0.285 1.456 8.684 3.111 17.33 4.382 26.02 1.993-8.917 4.031-17.83 6.011-26.75 2.685-0.15 5.371-0.26 8.056-0.396 1.881 9.203 3.802 18.39 5.838 27.55 1.597-9.461 3.366-18.89 5.076-28.34 2.828-0.097 5.654-0.247 8.468-0.41h1e-3zm18.9-21.73h44.44v85.71h-44.44v-8.571h35.55v-4.286h-35.55v-8.571h35.55v-4.286h-35.55v-8.572h35.55v-4.285h-35.55v-8.572h35.55v-4.285h-35.55v-8.557h35.55v-4.301h-35.55v-8.571h35.55v-4.286h-35.55v-8.571z" fill="url(#paint1_linear)"/>
  <path d="m155.6 17v44.23c0 8.91 7.259 15.93 16.17 15.93l44.23-0.0112v-2l-60.4-58.15z" fill="#282828" opacity=".25"/>
  <path d="m155.6 15v44.23c0 8.91 7.259 15.93 16.17 15.93l44.23-0.0112-60.4-60.15z" fill="url(#paint2_linear)"/>
  <defs>
    <linearGradient id="paint0_linear" x1="39" x2="39" y1="15" y2="240.2" gradientUnits="userSpaceOnUse">
      <stop stop-color="#076678" offset="1e-7"/>
      <stop stop-color="#458588" offset="1"/>
    </linearGradient>
    <linearGradient id="paint1_linear" x1="68" x2="68" y1="68" y2="188" gradientUnits="userSpaceOnUse">
      <stop stop-color="#076678" offset="1e-7"/>
      <stop stop-color="#458588" offset="1"/>
    </linearGradient>
    <linearGradient id="paint2_linear" x1="155.6" x2="155.6" y1="15" y2="75.16" gradientUnits="userSpaceOnUse">
      <stop stop-color="#076678" offset="1e-7"/>
      <stop stop-color="#458588" offset="1"/>
    </linearGradient>
  </defs>
</svg>
